svg/ricky/sitting/emotion/lookingdown.svg

<?xml version="1.0" encoding="UTF-8"?>
<svg width="500px" height="600px" viewBox="0 0 500 600" version="1.1" xmlns="http://www.w3.org/2000/svg" xmlns:xlink="http://www.w3.org/1999/xlink">
    <title>lookingdown</title>
    <defs>
        <polygon id="path-1" points="0 0.454 182.162 0.454 182.162 198.107017 0 198.107017"></polygon>
    </defs>
    <g id="lookingdown" stroke="none" stroke-width="1" fill="none" fill-rule="evenodd">
        <g transform="translate(169.000000, 58.000000)">
            <g id="face" transform="translate(0.000000, 0.546000)">
                <mask id="mask-2" fill="white">
                    <use xlink:href="#path-1"></use>
                </mask>
                <g id="Clip-4"></g>
                <path d="M172.4952,104.5344 C172.2272,106.0484 171.9272,107.5584 171.6162,109.0674 C171.5472,109.3024 171.4962,109.5404 171.4652,109.7834 C170.8132,112.8964 170.1032,116.0034 169.4092,119.0974 C169.0262,120.8044 168.5472,123.0964 166.9182,124.0884 C165.9882,124.6534 163.3322,124.4504 163.5592,122.8534 C163.6082,122.5104 163.4942,122.2274 163.3072,122.0134 C163.4402,113.2764 162.1382,104.6234 160.4872,95.9924 C161.0542,95.9074 161.5742,95.5834 161.9292,95.0484 C161.9982,94.9434 162.0692,94.8394 162.1422,94.7354 C162.1532,94.7214 162.1872,94.6764 162.2182,94.6344 C162.2662,94.5754 162.3242,94.5054 162.3402,94.4864 C162.4062,94.4094 162.4732,94.3344 162.5402,94.2604 C162.8652,93.9044 163.2242,93.5964 163.5812,93.2754 C163.5862,93.2714 163.5852,93.2714 163.5892,93.2674 C163.5912,93.2654 163.5922,93.2654 163.5942,93.2644 C163.6762,93.2064 163.7572,93.1464 163.8402,93.0894 C164.0262,92.9604 164.2182,92.8384 164.4122,92.7214 C164.6072,92.6054 164.8062,92.4954 165.0082,92.3914 C165.1202,92.3344 165.2332,92.2784 165.3482,92.2254 C165.3932,92.2034 165.4392,92.1824 165.4852,92.1624 C165.6202,92.1024 165.5772,92.1194 165.3552,92.2144 C165.4452,92.1014 165.8662,92.0204 165.9932,91.9774 C166.2082,91.9054 166.4262,91.8404 166.6452,91.7814 C166.8642,91.7234 167.0862,91.6734 167.3082,91.6294 C167.4072,91.6094 167.5072,91.5934 167.6062,91.5764 C167.6042,91.5754 167.5982,91.5754 167.5972,91.5734 C167.5982,91.5754 167.6052,91.5754 167.6072,91.5764 C167.6312,91.5724 167.6562,91.5674 167.6802,91.5634 C167.9672,91.5144 167.7132,91.5814 167.6242,91.5804 C167.6892,91.5874 167.8742,91.5694 168.0452,91.5514 C168.6462,91.7494 169.2172,92.0354 169.7082,92.4344 C173.2712,95.3354 173.2232,100.4234 172.4952,104.5344 M161.2832,124.2974 C161.2002,125.8994 161.0472,127.5064 160.8582,129.1094 C160.6392,129.7174 160.5672,130.3764 160.6212,131.0254 C160.3782,132.6874 160.0412,134.3354 159.6642,135.9724 C158.3252,140.1544 156.4062,144.1124 153.9712,147.7614 C153.9632,147.7524 153.9552,147.7424 153.9472,147.7334 C151.0922,150.9954 147.7302,153.8304 144.2552,156.4334 C137.7362,161.3174 130.9762,165.9074 124.2102,170.4394 C120.2022,173.1244 116.1632,175.7634 112.0982,178.3594 C111.8862,178.4944 111.7572,178.6704 111.6902,178.8594 C110.3642,179.6864 108.9972,180.4384 107.5412,181.0264 C102.1042,183.2244 96.3292,182.2224 90.9912,180.2484 C85.9742,178.3924 81.1672,175.8684 76.4032,173.4484 C67.8812,169.1184 59.4002,164.2844 52.4832,157.5974 C45.3172,150.6684 40.7262,141.9394 39.1752,132.0814 C37.5682,121.8624 38.9212,111.3824 40.3222,101.2214 C40.9892,96.3794 41.6932,91.5174 42.2202,86.6424 C47.0192,89.1964 52.1332,89.7654 55.9272,83.8624 C57.7012,81.1014 58.8522,78.0014 59.5442,74.7694 C62.2882,76.5694 65.3012,77.5264 68.6182,76.6234 C71.8372,75.7454 74.3922,73.2304 75.8502,70.3064 C77.1102,67.7794 76.8532,64.4994 78.1592,62.1134 C81.2192,63.8324 84.6022,64.9104 88.0682,65.0384 C96.0062,65.3324 100.3842,59.3054 102.8572,52.5164 C106.7642,54.5594 111.7012,54.5844 115.5462,52.3174 C115.7962,52.9454 116.0842,53.5574 116.4072,54.1554 C117.8982,58.6384 121.8502,62.1964 126.4202,63.5414 C129.4092,64.4224 132.5622,64.2714 135.4062,62.9844 C135.4702,62.9564 135.5382,62.9184 135.6032,62.8884 C135.5602,68.8054 136.8212,74.5634 141.2262,79.1484 C145.1592,83.2434 150.8262,84.8764 156.0272,83.8134 C156.0432,83.8954 156.0582,83.9764 156.0742,84.0584 C156.0782,84.1834 156.0862,84.3094 156.0902,84.4354 C156.1192,85.3184 156.3292,86.1554 156.6542,86.9404 C157.0132,88.7064 157.3732,90.4714 157.7282,92.2354 C159.8502,102.7674 161.8402,113.5064 161.2832,124.2974 M102.5172,191.1334 C100.9612,193.6614 98.6392,196.3534 95.3952,196.0894 C92.2732,195.8354 90.5792,192.7124 89.3452,190.1264 C89.4202,189.9914 89.4732,189.8384 89.4732,189.6474 L89.4732,181.8074 C92.8152,183.1184 96.2752,184.1044 99.8712,184.2864 C100.7212,184.3294 101.5472,184.2944 102.3632,184.2244 L102.3632,190.6394 C102.3632,190.8214 102.4282,190.9844 102.5172,191.1334 M36.5172,123.3424 C36.4692,123.3644 36.4212,123.3894 36.3842,123.4304 C36.2992,123.5234 36.2272,123.6524 36.2382,123.7844 C36.2412,123.8214 36.2372,123.8594 36.2352,123.8974 C36.2272,123.9334 36.2172,123.9694 36.2062,124.0044 C36.1912,124.0334 36.1742,124.0614 36.1562,124.0904 C36.1182,124.1294 36.0802,124.1674 36.0422,124.2064 C35.9612,124.2874 35.9152,124.4014 35.9042,124.5164 C35.9002,124.5154 35.8962,124.5144 35.8922,124.5144 C35.6332,124.3784 35.3142,124.3524 34.9812,124.5324 C33.1082,125.5444 31.2872,123.8274 30.1462,122.4664 C28.8012,120.8634 27.8762,118.8894 26.9272,117.0414 C24.9472,113.1824 23.2242,108.8794 23.8312,104.4584 C24.3062,100.9994 26.3012,97.2644 29.9332,96.3764 C32.8952,95.6504 36.6422,96.8914 37.5942,100.0194 C37.7192,100.4334 38.0252,100.6344 38.3562,100.6904 C37.2922,108.2224 36.3862,115.7634 36.5172,123.3424 M99.1862,3.8294 C97.7152,3.2474 96.1902,2.8034 94.6212,2.5074 C96.2192,2.6424 97.7662,3.1054 99.1862,3.8294 M182.0232,100.6854 C181.8712,99.5384 181.5482,98.4694 181.2442,97.3574 C180.8502,95.9204 181.1412,94.7434 181.4612,93.3274 C182.5072,88.7004 181.0172,83.7934 177.5942,80.5154 C180.6792,73.2674 178.8772,64.3454 173.0262,58.9864 C173.0782,57.6224 172.6672,56.4164 172.0162,55.3114 C171.5912,54.2524 170.9022,53.4064 170.0422,52.7814 C169.7542,52.4774 169.4602,52.1794 169.1622,51.8864 C169.0102,51.7364 168.8492,51.5884 168.6852,51.4384 C168.3392,48.5564 167.9762,45.6194 167.3022,42.8384 C167.2682,42.4054 167.2272,41.9714 167.1682,41.5394 C166.7272,38.2784 165.6722,34.4024 163.2762,31.9974 C161.6412,30.3574 158.9932,29.6464 156.9822,30.7424 C155.9232,28.1854 154.4302,25.7584 152.5492,23.7104 C151.5732,22.1764 150.3162,20.8314 148.6762,19.8184 C146.3262,18.3684 143.5992,18.2224 141.1572,18.9834 C140.6732,15.4694 138.3492,12.2784 134.8982,11.0204 C130.9132,9.5694 126.2502,11.2864 123.8152,14.6514 C121.5562,11.7764 118.9892,8.9404 115.4392,7.7804 C112.6982,6.8854 109.4352,7.1514 107.1322,8.9054 C107.0302,8.8084 106.9292,8.7034 106.8262,8.6094 C106.7512,8.5414 106.6692,8.4834 106.5932,8.4164 C104.1262,3.8704 99.3782,0.6854 94.1232,0.4654 C88.4872,0.2294 83.2192,3.5284 80.5492,8.3744 C76.7902,4.8584 70.7382,4.1574 66.2102,6.6234 C65.6172,6.9454 65.0612,7.3324 64.5382,7.7594 C63.9552,8.2344 63.4362,8.9804 62.7662,9.3254 C61.8282,9.8074 60.9352,9.0254 60.0922,8.6414 C59.3072,8.2844 58.4892,8.0104 57.6392,7.8504 C54.4172,7.2464 51.0172,8.0104 48.4662,10.0964 C46.2922,11.8744 44.9262,14.4954 44.5582,17.2564 C43.7052,18.3194 42.9842,19.4634 42.3832,20.6744 C38.1812,16.4304 30.0702,16.9054 26.9332,22.3044 C26.0242,23.8674 25.5992,25.6604 24.6982,27.2264 C24.3002,27.9184 23.8042,28.5724 23.0812,28.9494 C21.8832,29.5734 20.4452,29.3324 19.1512,29.2944 C15.1792,29.1784 12.1472,31.5754 10.8752,35.2984 C9.6242,38.9624 10.6842,42.6854 12.3672,46.0484 C12.6922,46.8594 13.0792,47.6464 13.5362,48.3994 C7.8172,50.4884 5.3272,58.4134 8.2562,63.6104 C8.2982,64.0824 8.3632,64.5524 8.4532,65.0154 C3.5582,66.7514 -0.1908,71.5244 0.0072,76.8854 C0.2092,82.3104 4.3152,86.9604 9.4432,88.2884 C4.5532,94.0444 6.4622,102.9224 10.1152,108.9784 C11.3132,110.9664 12.8262,112.6554 14.3192,114.4184 C16.1262,116.5514 17.0292,118.7764 17.7302,121.4554 C18.8922,125.9024 20.9642,129.7794 24.5662,132.7314 C28.3932,135.8694 33.2372,137.6474 38.2052,137.4264 C38.2452,137.4244 38.2722,137.4054 38.3102,137.3994 C39.9722,143.6504 42.8182,149.5054 47.0262,154.6374 C53.2312,162.2054 61.5792,167.7304 70.0892,172.3854 C74.4812,174.7874 78.9772,177.0044 83.4942,179.1604 C84.8322,179.8004 86.1912,180.4304 87.5682,181.0214 C87.5092,181.1454 87.4732,181.2894 87.4732,181.4584 L87.4732,189.2774 C87.2052,189.5644 87.0762,189.9864 87.2862,190.4324 C88.9082,193.8804 91.1402,197.7904 95.3952,198.0894 C99.5702,198.3834 102.6102,194.9454 104.5252,191.6764 C104.7902,191.2224 104.6532,190.7964 104.3632,190.5134 L104.3632,183.9454 C107.8282,183.2744 111.0142,181.6994 114.0422,179.6864 C113.9932,179.6514 113.9532,179.6024 113.9062,179.5654 C120.9492,175.0524 127.9132,170.4164 134.7812,165.6394 C141.0662,161.2674 147.6052,156.9674 153.0982,151.5954 C153.4862,151.2154 153.8412,150.8034 154.2152,150.4094 C154.4562,150.3654 154.6882,150.2364 154.8642,149.9894 C155.0942,149.6674 155.3122,149.3374 155.5332,149.0094 C155.5572,148.9814 155.5842,148.9574 155.6082,148.9294 C155.6032,148.9274 155.5982,148.9244 155.5932,148.9224 C157.8512,145.5664 159.6802,141.9404 161.0432,138.1354 C161.0972,138.1574 161.1532,138.1674 161.2062,138.1914 C161.3602,137.5974 161.4912,137.0004 161.6262,136.4034 C161.6792,136.2374 161.7382,136.0744 161.7892,135.9074 C161.8252,135.7884 161.8232,135.6824 161.8202,135.5784 C161.8272,135.5474 161.8362,135.5154 161.8422,135.4844 C161.9402,135.5254 162.0372,135.5674 162.1582,135.5794 C166.3062,135.9774 170.1362,134.0484 173.0912,131.2554 C176.1862,128.3294 179.1072,124.1074 179.6782,119.8084 C179.8122,118.7984 179.7932,117.7694 179.5532,116.7744 C179.2712,115.6034 178.3352,114.5104 178.6462,113.2694 C178.9012,112.2514 179.7282,111.3504 180.2252,110.4404 C180.7872,109.4094 181.2352,108.3024 181.5562,107.1724 C182.1532,105.0734 182.3092,102.8474 182.0232,100.6854" id="Fill-3" fill="#231F20" mask="url(#mask-2)"></path>
            </g>
            <g id="eyes" transform="translate(61.164635, 83.827608)" fill="#231F20">
                <path d="M30.1682649,29.7722916 C29.4392649,34.4192916 27.4342649,39.4292916 23.9252649,42.6812916 C19.7422649,46.5572916 13.8872649,45.2252916 10.3722649,41.1562916 C7.15126486,37.4272916 5.78826486,32.1542916 5.78022852,27.3132916 C5.77126486,22.0402916 7.43426486,16.7802916 10.5482649,12.5172916 C10.8962649,12.5262916 11.2362649,12.5652916 11.5642649,12.6322916 C11.5892649,12.5862916 11.6172649,12.5452916 11.6362649,12.4932916 C12.8892649,9.02429164 17.9672649,8.62229164 20.9842649,9.43329164 C23.8672649,10.2082916 26.0382649,12.1042916 27.4112649,14.6062916 C27.1932649,14.8812916 27.1282649,15.2602916 27.3852649,15.6512916 C27.9442649,16.4992916 28.4022649,17.3912916 28.8032649,18.3052916 C28.9252649,18.7962916 29.0352649,19.2922916 29.1342649,19.7912916 C29.2072649,19.7642916 29.2802649,19.7402916 29.3532649,19.7132916 C30.4552649,22.9142916 30.7002649,26.3822916 30.1682649,29.7722916 M30.6732649,17.5332916 C29.9302649,14.7062916 28.6282649,11.9622916 26.3682649,10.0482916 C24.0722649,8.10429164 21.0752649,7.02429164 18.0632649,7.06729164 C15.3462649,7.10629164 12.3722649,8.06929164 10.6812649,10.2142916 C10.3472649,10.0202916 9.93126486,10.0302916 9.61226486,10.4362916 C2.81826486,19.0792916 1.35626486,32.7032916 8.30026486,41.7562916 C11.6572649,46.1342916 17.6872649,48.6882916 22.8702649,45.8962916 C27.5942649,43.3522916 30.3682649,37.5862916 31.6262649,32.5972916 C32.8832649,27.6092916 32.7222649,22.2312916 30.6732649,17.5332916" id="Fill-8"></path>
                <path d="M53.8239649,19.7136916 C53.8969649,19.7396916 53.9699649,19.7646916 54.0429649,19.7906916 C54.1419649,19.2916916 54.2519649,18.7966916 54.3739649,18.3056916 C54.7749649,17.3916916 55.2329649,16.4986916 55.7919649,15.6516916 C56.0499649,15.2606916 55.9849649,14.8816916 55.7659649,14.6066916 C57.1399649,12.1046916 59.3099649,10.2076916 62.1929649,9.43369164 C65.2099649,8.62169164 70.2879649,9.02469164 71.5409649,12.4926916 C71.5599649,12.5456916 71.5879649,12.5866916 71.6129649,12.6326916 C71.9419649,12.5656916 72.2809649,12.5266916 72.6289649,12.5176916 C75.7429649,16.7796916 77.4069649,22.0396916 77.3970097,27.3136916 C77.3889649,32.1536916 76.0259649,37.4276916 72.8049649,41.1556916 C69.2899649,45.2256916 63.4349649,46.5576916 59.2519649,42.6816916 C55.7429649,39.4296916 53.7389649,34.4196916 53.0089649,29.7726916 C52.4779649,26.3826916 52.7219649,22.9136916 53.8239649,19.7136916 M51.5519649,32.5976916 C52.8089649,37.5866916 55.5839649,43.3526916 60.3069649,45.8966916 C65.4909649,48.6886916 71.5199649,46.1346916 74.8779649,41.7566916 C81.8209649,32.7026916 80.3589649,19.0786916 73.5649649,10.4366916 C73.2459649,10.0296916 72.8309649,10.0206916 72.4959649,10.2146916 C70.8059649,8.06869164 67.8319649,7.10669164 65.1139649,7.06769164 C62.1019649,7.02469164 59.1049649,8.10469164 56.8089649,10.0486916 C54.5489649,11.9626916 53.2469649,14.7056916 52.5049649,17.5326916 C50.4559649,22.2316916 50.2939649,27.6096916 51.5519649,32.5976916" id="Fill-10"></path>
                <path d="M13.7394649,0.900291643 C8.48546486,2.22029164 3.70046486,5.19129164 0.20646486,9.33329164 C-0.47353514,10.1372916 0.68646486,11.3082916 1.37046486,10.4972916 C4.69646486,6.55529164 9.17446486,3.74529164 14.1774649,2.48829164 C15.2044649,2.23029164 14.7694649,0.641291643 13.7394649,0.900291643" id="Fill-12"></path>
                <path d="M76.7900649,4.56429164 C72.7180649,1.05629164 67.2560649,0.353291643 62.0860649,0.00229164325 C61.0280649,-0.0697083567 61.0320649,1.57829164 62.0860649,1.64929164 C66.7740649,1.96729164 71.9210649,2.53829164 75.6250649,5.72929164 C76.4250649,6.41829164 77.5950649,5.25729164 76.7900649,4.56429164" id="Fill-14"></path>
                <path d="M25.3715649,36.0173916 C25.3485649,35.9163916 25.3055649,35.8203916 25.2785649,35.7193916 C25.3475649,34.3873916 25.1265649,34.0773916 24.6605649,32.8613916 C24.5215649,32.1963916 24.3445649,30.5443916 24.1075649,29.9213916 C23.2555649,27.6863916 21.4435649,25.5913916 18.8125649,26.0433916 C17.7775649,26.2223916 16.8875649,26.7563916 16.1315649,27.4663916 C15.2585649,27.9553916 14.4735649,28.6213916 13.8305649,29.4343916 C12.9155649,30.5933916 12.3655649,31.9523916 12.0865649,33.3763916 C11.4705649,35.3713916 11.4475649,37.5693916 11.9115649,39.5863916 C12.2605649,41.1023916 13.0315649,42.5993916 14.1595649,43.6333916 C14.3665649,43.9003916 14.5875649,44.1573916 14.8315649,44.3973916 C15.9635649,45.5123916 17.4895649,46.0763916 18.9905649,45.9323916 C19.9535649,45.9363916 20.9345649,45.6843916 21.8645649,45.0923916 C24.8005649,43.2243916 26.1335649,39.3403916 25.3715649,36.0173916" id="Fill-18"></path>
                <path d="M69.6108649,28.8689916 C66.4688649,26.2469916 61.6158649,27.4469916 59.2178649,30.5029916 C58.4298649,31.5069916 57.9588649,32.6239916 57.7378649,33.7819916 C56.8058649,34.7009916 56.7188649,36.1589916 57.0498649,37.4909916 C57.0698649,38.8549916 57.3968649,40.2149916 58.0778649,41.4099916 C58.5298649,42.2009916 59.1268649,42.8889916 59.8068649,43.4789916 C59.9048649,43.5769916 59.9898649,43.6879916 60.0948649,43.7789916 C60.6798649,44.2829916 61.3298649,44.6369916 62.0088649,44.8739916 C63.0728649,45.3349916 64.2258649,45.5909916 65.3928649,45.5841315 C65.4748649,45.5829916 65.5368649,45.5539916 65.6088649,45.5379916 C65.9688649,45.5159916 66.3318649,45.4699916 66.6958649,45.3679916 C68.6768649,44.8179916 70.1728649,43.1789916 71.0518649,41.3789916 C72.8788649,37.6419916 73.0898649,31.7709916 69.6108649,28.8689916" id="Fill-20"></path>
            </g>
            <path d="M109.9225,134.1107 C109.8375,133.5767 109.1715,133.2807 108.6925,133.4127 C108.1235,133.5687 107.9085,134.1067 107.9935,134.6417 C108.3925,137.1477 106.3585,139.8437 103.8585,140.2007 C101.2335,140.5737 98.5355,138.3227 98.3515,135.7007 C98.2625,134.4237 96.2615,134.4147 96.3515,135.7007 C96.5585,138.6617 98.7465,141.2377 101.6105,142.0067 C104.5005,142.7847 107.4285,141.3597 108.9745,138.8747 C109.8675,137.4387 110.1865,135.7737 109.9225,134.1107" id="nose" fill="#231F20"></path>
            <path d="M116.1497,153.4359 C113.0457,158.8739 107.0407,162.4569 100.7437,162.3739 C94.5767,162.2929 88.7627,158.7029 85.7487,153.3639 C85.1157,152.2429 83.3877,153.2489 84.0217,154.3729 C87.3787,160.3209 93.8877,164.2839 100.7437,164.3739 C107.7267,164.4649 114.4327,160.4789 117.8767,154.4459 C118.5157,153.3259 116.7887,152.3169 116.1497,153.4359" id="mouth" fill="#231F20"></path>
        </g>
    </g>
</svg>

<svg width="500" height="600" xmlns="http://www.w3.org/2000/svg" xmlns:xlink="http://www.w3.org/1999/xlink"><defs><path id="a" d="M0 .454h182.162v197.653H0z"/></defs><g fill="none" fill-rule="evenodd"><g transform="translate(169 58.546)"><mask id="b" fill="#fff"><use xlink:href="#a"/></mask><path d="M172.495 104.534a164.651 164.651 0 01-.879 4.533c-.069.235-.12.473-.15.716-.653 3.113-1.363 6.22-2.057 9.314-.383 1.707-.862 4-2.49 4.991-.93.565-3.587.362-3.36-1.235a1.022 1.022 0 00-.252-.84c.133-8.737-1.169-17.39-2.82-26.02.567-.086 1.087-.41 1.442-.945.07-.105.14-.209.213-.313l.076-.1.122-.149c.066-.077.133-.152.2-.226.325-.356.684-.664 1.041-.985l.008-.008.005-.003c.082-.058.163-.118.246-.175a10.696 10.696 0 011.168-.698 9.718 9.718 0 01.477-.229c.135-.06.092-.043-.13.052.09-.113.511-.194.638-.237a10.775 10.775 0 011.315-.348c.1-.02.2-.036.298-.053-.002 0-.008 0-.009-.003.001.002.008.002.01.003l.073-.013c.287-.049.033.018-.056.017.065.007.25-.01.421-.029a5.2 5.2 0 011.663.883c3.563 2.901 3.515 7.99 2.787 12.1m-11.212 19.763a73.75 73.75 0 01-.425 4.812 4.554 4.554 0 00-.237 1.916c-.243 1.662-.58 3.31-.957 4.947a47.106 47.106 0 01-5.693 11.79l-.024-.029c-2.855 3.262-6.217 6.097-9.692 8.7-6.519 4.884-13.279 9.474-20.045 14.006a660.568 660.568 0 01-12.112 7.92.972.972 0 00-.408.5c-1.326.827-2.693 1.58-4.149 2.167-5.437 2.198-11.212 1.196-16.55-.778-5.017-1.856-9.824-4.38-14.588-6.8-8.522-4.33-17.003-9.164-23.92-15.85-7.166-6.93-11.757-15.659-13.308-25.517-1.607-10.219-.254-20.699 1.147-30.86.667-4.842 1.371-9.704 1.898-14.579 4.8 2.554 9.913 3.123 13.707-2.78 1.774-2.76 2.925-5.86 3.617-9.093 2.744 1.8 5.757 2.757 9.074 1.854 3.22-.878 5.774-3.393 7.232-6.317 1.26-2.527 1.003-5.807 2.31-8.193 3.06 1.72 6.442 2.797 9.908 2.925 7.938.294 12.316-5.733 14.79-12.522 3.906 2.043 8.843 2.068 12.688-.199.25.628.538 1.24.861 1.838 1.491 4.483 5.443 8.041 10.013 9.386 2.99.881 6.142.73 8.986-.557.064-.028.132-.066.197-.096-.043 5.917 1.218 11.675 5.623 16.26 3.933 4.095 9.6 5.728 14.801 4.665l.047.245c.004.125.012.251.016.377a7.14 7.14 0 00.564 2.505c.36 1.766.72 3.531 1.074 5.295 2.122 10.532 4.112 21.271 3.555 32.062m-58.766 66.836c-1.556 2.528-3.878 5.22-7.122 4.956-3.122-.254-4.816-3.377-6.05-5.963a.957.957 0 00.128-.479v-7.84c3.342 1.311 6.802 2.297 10.398 2.48.85.042 1.676.007 2.492-.063v6.415a.96.96 0 00.154.494m-66-67.79a.39.39 0 00-.133.087c-.085.093-.157.222-.146.354a.714.714 0 01-.003.113 1.298 1.298 0 01-.029.107 1.272 1.272 0 01-.05.086l-.114.116a.508.508 0 00-.138.31l-.012-.002a.936.936 0 00-.91.018c-1.874 1.012-3.695-.705-4.836-2.066-1.345-1.603-2.27-3.577-3.219-5.425-1.98-3.859-3.703-8.162-3.096-12.583.475-3.459 2.47-7.194 6.102-8.082 2.962-.726 6.71.515 7.661 3.643a.922.922 0 00.762.671c-1.064 7.532-1.97 15.073-1.839 22.652M99.187 3.83a24.99 24.99 0 00-4.566-1.322c1.598.135 3.145.598 4.565 1.322m82.837 96.856c-.152-1.147-.475-2.216-.779-3.328-.394-1.437-.103-2.614.217-4.03 1.046-4.627-.444-9.534-3.867-12.812 3.085-7.248 1.283-16.17-4.568-21.529.052-1.364-.359-2.57-1.01-3.675a5.74 5.74 0 00-1.974-2.53 35.383 35.383 0 00-.88-.895c-.152-.15-.313-.298-.477-.448-.346-2.882-.709-5.819-1.383-8.6a22.77 22.77 0 00-.134-1.299c-.44-3.26-1.496-7.137-3.892-9.542-1.635-1.64-4.283-2.35-6.294-1.255-1.059-2.557-2.552-4.984-4.433-7.032-.976-1.534-2.233-2.879-3.873-3.892-2.35-1.45-5.077-1.596-7.519-.835-.484-3.514-2.808-6.705-6.259-7.963-3.985-1.45-8.648.266-11.083 3.631-2.259-2.875-4.826-5.71-8.376-6.87-2.74-.896-6.004-.63-8.307 1.124-.102-.097-.203-.202-.306-.296-.075-.068-.157-.126-.233-.193-2.467-4.546-7.215-7.73-12.47-7.95C88.487.228 83.22 3.527 80.55 8.373c-3.759-3.516-9.81-4.217-14.339-1.75-.593.321-1.149.708-1.672 1.135-.583.475-1.102 1.221-1.772 1.566-.938.482-1.83-.3-2.674-.684a10.713 10.713 0 00-2.453-.79c-3.222-.605-6.622.16-9.173 2.245-2.174 1.778-3.54 4.4-3.908 7.16a18.788 18.788 0 00-2.175 3.418c-4.202-4.244-12.313-3.769-15.45 1.63-.909 1.563-1.334 3.356-2.235 4.922-.398.692-.894 1.346-1.617 1.723-1.198.624-2.636.383-3.93.345-3.972-.116-7.004 2.281-8.276 6.004-1.25 3.664-.19 7.387 1.492 10.75a15.89 15.89 0 001.17 2.351c-5.72 2.09-8.21 10.014-5.28 15.211.041.472.106.942.196 1.405C3.559 66.75-.19 71.524.008 76.884.21 82.31 4.315 86.96 9.443 88.288c-4.89 5.756-2.98 14.634.672 20.69 1.198 1.988 2.711 3.677 4.204 5.44 1.807 2.133 2.71 4.358 3.411 7.037 1.162 4.447 3.234 8.324 6.836 11.276 3.827 3.138 8.671 4.916 13.64 4.695.04-.002.066-.02.104-.027 1.662 6.251 4.508 12.106 8.716 17.238 6.205 7.568 14.553 13.093 23.063 17.748 4.392 2.402 8.888 4.62 13.405 6.775 1.338.64 2.697 1.27 4.074 1.861a1.002 1.002 0 00-.095.437v7.82c-.268.286-.397.708-.187 1.154 1.622 3.448 3.854 7.358 8.11 7.657 4.174.294 7.214-3.144 9.13-6.413.264-.454.127-.88-.163-1.163v-6.568c3.465-.67 6.651-2.246 9.68-4.259-.05-.035-.09-.084-.137-.12a662.76 662.76 0 0020.875-13.927c6.285-4.372 12.824-8.672 18.317-14.044.388-.38.743-.792 1.117-1.186.241-.044.473-.173.65-.42.23-.322.447-.652.668-.98.024-.028.051-.052.075-.08l-.015-.007a48.811 48.811 0 005.45-10.787c.054.022.11.032.163.056.154-.594.285-1.19.42-1.788.053-.166.112-.329.163-.496a.978.978 0 00.031-.329c.007-.03.016-.063.022-.094.098.041.195.083.316.095 4.148.398 7.978-1.53 10.933-4.324 3.095-2.926 6.016-7.148 6.587-11.447.134-1.01.115-2.039-.125-3.034-.282-1.17-1.218-2.264-.907-3.505.255-1.018 1.082-1.919 1.58-2.829a15.979 15.979 0 001.33-3.268c.597-2.099.753-4.325.467-6.487" fill="#231F20" mask="url(#b)"/></g><g fill="#231F20"><path d="M260.333 171.6c-.73 4.647-2.734 9.657-6.243 12.909-4.183 3.876-10.038 2.544-13.553-1.525-3.221-3.73-4.584-9.002-4.592-13.843-.01-5.273 1.654-10.533 4.768-14.796a5.83 5.83 0 011.016.115c.025-.046.053-.087.072-.14 1.253-3.468 6.33-3.87 9.348-3.06 2.883.776 5.054 2.672 6.427 5.174-.218.275-.283.654-.026 1.045.559.848 1.017 1.74 1.418 2.654.122.49.232.987.33 1.486.074-.027.147-.051.22-.078 1.102 3.2 1.347 6.669.815 10.059m.505-12.24c-.743-2.826-2.045-5.57-4.305-7.484a12.684 12.684 0 00-8.305-2.981c-2.717.039-5.691 1.002-7.382 3.147-.334-.194-.75-.184-1.07.222-6.793 8.643-8.255 22.267-1.311 31.32 3.357 4.378 9.387 6.932 14.57 4.14 4.724-2.544 7.498-8.31 8.756-13.3 1.257-4.987 1.096-10.365-.953-15.063m23.151 2.18l.219.077c.099-.499.209-.994.33-1.485.402-.914.86-1.807 1.419-2.654.258-.39.193-.77-.026-1.045 1.374-2.502 3.544-4.399 6.427-5.173 3.017-.812 8.095-.409 9.348 3.06.019.052.047.093.072.14a5.841 5.841 0 011.016-.116c3.114 4.262 4.778 9.522 4.768 14.796-.008 4.84-1.371 10.114-4.592 13.842-3.515 4.07-9.37 5.402-13.553 1.526-3.51-3.252-5.513-8.262-6.243-12.909-.531-3.39-.287-6.859.815-10.059m-2.272 12.884c1.257 4.99 4.032 10.755 8.755 13.3 5.184 2.791 11.213.237 14.57-4.14 6.944-9.055 5.482-22.679-1.312-31.32-.32-.408-.734-.417-1.07-.223-1.69-2.146-4.663-3.108-7.381-3.147a12.684 12.684 0 00-8.305 2.981c-2.26 1.914-3.562 4.657-4.304 7.484-2.05 4.7-2.211 10.077-.953 15.065m-37.813-31.697c-5.254 1.32-10.039 4.29-13.533 8.433-.68.804.48 1.975 1.164 1.164a24.618 24.618 0 0112.807-8.01c1.027-.257.592-1.846-.438-1.587m63.051 3.664c-4.072-3.508-9.534-4.211-14.704-4.562-1.058-.072-1.054 1.576 0 1.647 4.688.318 9.835.889 13.539 4.08.8.689 1.97-.472 1.165-1.165"/><path d="M255.536 177.845c-.023-.101-.066-.197-.093-.298.07-1.332-.152-1.642-.618-2.858-.139-.665-.316-2.317-.553-2.94-.852-2.235-2.664-4.33-5.295-3.878-1.035.179-1.925.713-2.68 1.423a7.796 7.796 0 00-2.302 1.968c-.915 1.159-1.465 2.518-1.744 3.942-.616 1.995-.639 4.193-.175 6.21.35 1.516 1.12 3.013 2.248 4.047.207.267.428.524.672.764 1.132 1.115 2.658 1.679 4.16 1.535a5.244 5.244 0 002.873-.84c2.936-1.868 4.27-5.752 3.507-9.075m44.239-7.148c-3.142-2.622-7.995-1.422-10.393 1.634a7.542 7.542 0 00-1.48 3.279c-.932.919-1.019 2.377-.688 3.709.02 1.364.347 2.724 1.028 3.919a8.033 8.033 0 001.73 2.069c.097.098.182.209.287.3a5.872 5.872 0 001.914 1.095 8.409 8.409 0 003.384.71c.082-.001.144-.03.216-.046a5.16 5.16 0 001.087-.17c1.981-.55 3.477-2.19 4.356-3.99 1.827-3.736 2.038-9.607-1.44-12.51"/></g><path d="M278.923 192.11c-.085-.533-.751-.83-1.23-.697-.57.156-.784.694-.7 1.229.4 2.506-1.635 5.202-4.135 5.559-2.625.373-5.323-1.878-5.507-4.5-.089-1.277-2.09-1.286-2 0 .207 2.96 2.395 5.537 5.26 6.306 2.89.778 5.818-.647 7.364-3.132a6.892 6.892 0 00.948-4.764m6.227 19.325c-3.104 5.438-9.11 9.02-15.406 8.938-6.167-.081-11.981-3.671-14.995-9.01-.633-1.121-2.361-.115-1.727 1.009 3.357 5.948 9.866 9.91 16.722 10 6.983.092 13.689-3.894 17.133-9.927.639-1.12-1.088-2.13-1.727-1.01" fill="#231F20"/></g></svg>
